X:599
T: ACH LIEBER HERRE JESU CHRIST
N: E1917
O: Europa, Mitteleuropa, Deutschland
R: Kinder - Lied, religioes, Wiegen -, Schlaf - Lied
M: 4/4
L: 1/4
K: D
d | cBcd | BAA
d | cBFA | GFF
E | FGGF | EDD
A | ABcd | AFF
E | GFDF | GFF
E | GFDF | GFF

